X:19
T:Bonaparte's Retreat
C:Old-Time
M:4/4
K:D
L:1/8
AB | "D" d2 d>e dBAB | dBAF "A" EDAB | "D" d2 d>e dBAB |
dBAF "A" EDDE || "D" F/D/F/D/ A/D/F/D/ "A" E/D/E/F/ "G" G/F/E/D/ "D" F/D/F/D/ A/D/F/D/ "A" E/D/E/F/ "D" DD/E/ |
"D" F/D/F/D/ A/D/F/D/ "A" E/D/E/F/ "G" G/F/E/D/ "D" F/D/F/D/ A/D/F/D/ "A" E/D/E/F/ "D" DD/E/ :|

